X:091
T:Brighton Camp
M:4/4
L:1/8
K:G
gf | e2 dc B2 GG | B2 G2 E2 D2 | G2 G2 GABc | d4 B2 gf | 
e2 dc B2 GG | B2 G2 E2 G2 | F2 D2 D2 EF | G4 G2 :| 
dc | B2 d2 e2 f2 | g2 d2 BA G2 | Bc d2 e2 f2 | g4 f2 g2 | 
e2 dc B2 GG | B2 G2 E2 G2 | F2 D2 D2 EF | G4 G2 :| 

